src/assets/steam.svg

<?xml version="1.0" encoding="UTF-8"?>
<!-- Uploaded to: SVG Repo, www.svgrepo.com, Generator: SVG Repo Mixer Tools -->
<svg width="800px" height="800px" viewBox="-1.5 0 259 259" version="1.1" xmlns="http://www.w3.org/2000/svg" xmlns:xlink="http://www.w3.org/1999/xlink" preserveAspectRatio="xMidYMid" fill="#000000">
    <g>
        <path d="M127.778579,0 C60.4203546,0 5.24030561,52.412282 0,119.013983 L68.7236558,147.68805 C74.5451924,143.665561 81.5845466,141.322185 89.1497766,141.322185 C89.8324924,141.322185 90.5059824,141.340637 91.1702465,141.377541 L121.735621,96.668877 L121.735621,96.0415165 C121.735621,69.1388208 143.425688,47.2457835 170.088511,47.2457835 C196.751333,47.2457835 218.441401,69.1388208 218.441401,96.0415165 C218.441401,122.944212 196.751333,144.846475 170.088511,144.846475 C169.719475,144.846475 169.359666,144.83725 168.99063,144.828024 L125.398299,176.205276 C125.425977,176.786507 125.444428,177.367738 125.444428,177.939743 C125.444428,198.144443 109.160732,214.575753 89.1497766,214.575753 C71.5836817,214.575753 56.8868387,201.917832 53.5655182,185.163615 L4.40997549,164.654462 C19.6326942,218.967277 69.0834655,258.786219 127.778579,258.786219 C198.596511,258.786219 256,200.847629 256,129.393109 C256,57.9293643 198.596511,0 127.778579,0 Z M80.3519677,196.332478 L64.6033732,189.763644 C67.389592,195.63131 72.2239585,200.539484 78.6359521,203.233444 C92.4932392,209.064206 108.472481,202.430791 114.247888,188.435116 C117.043333,181.663313 117.061785,174.190342 114.294018,167.400086 C111.526251,160.609831 106.295171,155.31417 99.5879487,152.491048 C92.9176301,149.695603 85.7767911,149.797088 79.5031858,152.186594 L95.777656,158.976849 C105.999942,163.276114 110.834309,175.122157 106.571948,185.436702 C102.318812,195.751247 90.574254,200.631743 80.3519677,196.332478 Z M202.30901,96.0424391 C202.30901,78.1165345 187.85204,63.5211763 170.092201,63.5211763 C152.323137,63.5211763 137.866167,78.1165345 137.866167,96.0424391 C137.866167,113.968344 152.323137,128.554476 170.092201,128.554476 C187.85204,128.554476 202.30901,113.968344 202.30901,96.0424391 Z M145.938821,95.9870838 C145.938821,82.4988323 156.779242,71.5661525 170.138331,71.5661525 C183.506646,71.5661525 194.347066,82.4988323 194.347066,95.9870838 C194.347066,109.475335 183.506646,120.408015 170.138331,120.408015 C156.779242,120.408015 145.938821,109.475335 145.938821,95.9870838 Z">

</path>
    </g>
</svg>

<svg xmlns="http://www.w3.org/2000/svg" width="800" height="800" preserveAspectRatio="xMidYMid" viewBox="-1.5 0 259 259"><path d="M127.779 0C60.42 0 5.24 52.412 0 119.014l68.724 28.674a35.8 35.8 0 0 1 20.426-6.366q1.023 0 2.02.056l30.566-44.71v-.626c0-26.903 21.69-48.796 48.353-48.796 26.662 0 48.352 21.893 48.352 48.796s-21.69 48.804-48.352 48.804c-.37 0-.73-.009-1.098-.018l-43.593 31.377c.028.582.046 1.163.046 1.735 0 20.204-16.283 36.636-36.294 36.636-17.566 0-32.263-12.658-35.584-29.412L4.41 164.654c15.223 54.313 64.673 94.132 123.369 94.132 70.818 0 128.221-57.938 128.221-129.393C256 57.93 198.597 0 127.779 0M80.352 196.332l-15.749-6.568c2.787 5.867 7.621 10.775 14.033 13.47 13.857 5.83 29.836-.803 35.612-14.799a27.56 27.56 0 0 0 .046-21.035c-2.768-6.79-7.999-12.086-14.706-14.909-6.67-2.795-13.811-2.694-20.085-.304l16.275 6.79c10.222 4.3 15.056 16.145 10.794 26.46-4.253 10.314-15.998 15.195-26.22 10.895m121.957-100.29c0-17.925-14.457-32.52-32.217-32.52-17.769 0-32.226 14.595-32.226 32.52s14.457 32.512 32.226 32.512c17.76 0 32.217-14.586 32.217-32.512m-56.37-.055c0-13.488 10.84-24.42 24.2-24.42 13.368 0 24.208 10.932 24.208 24.42s-10.84 24.421-24.209 24.421c-13.359 0-24.2-10.933-24.2-24.42"/></svg>
